usr/share/icons/biglinux-icons-material/scalable/apps/qtdesigner.svg

<?xml version="1.0" encoding="UTF-8" standalone="no"?>
<svg
   width="24"
   height="24"
   viewBox="0 0 6.349875 6.349875"
   version="1.1"
   id="svg190"
   sodipodi:docname="qtdesigner.svg"
   xml:space="preserve"
   inkscape:version="1.2.2 (b0a8486541, 2022-12-01)"
   inkscape:export-filename="qt-creator.pdf"
   inkscape:export-xdpi="96"
   inkscape:export-ydpi="96"
   xmlns:inkscape="http://www.inkscape.org/namespaces/inkscape"
   xmlns:sodipodi="http://sodipodi.sourceforge.net/DTD/sodipodi-0.dtd"
   xmlns="http://www.w3.org/2000/svg"
   xmlns:svg="http://www.w3.org/2000/svg"><defs
     id="defs194"><rect
       x="5.3268056"
       y="2.0367198"
       width="12.69033"
       height="15.980416"
       id="rect6368" /><linearGradient
       id="paint0_linear_3_286"
       x1="12"
       y1="1"
       x2="12"
       y2="12"
       gradientUnits="userSpaceOnUse"><stop
         stop-color="#EEA5FF"
         id="stop266" /><stop
         offset="1"
         stop-color="#A159B2"
         id="stop268" /></linearGradient><linearGradient
       x1="12"
       y1="1"
       x2="12"
       y2="23"
       gradientUnits="userSpaceOnUse"
       gradientTransform="matrix(0.75,0,0,0.75,-7.98374e-6,-2.49454e-5)"
       spreadMethod="pad"
       id="linearGradient38255-1"><stop
         style="stop-opacity:1;stop-color:#4a74d2"
         offset="0"
         id="stop38251-9" /><stop
         style="stop-opacity:1;stop-color:#375295"
         offset="1"
         id="stop38253-4" /></linearGradient><linearGradient
       id="paint0_linear_18_187"
       x1="12"
       y1="1"
       x2="12"
       y2="23"
       gradientUnits="userSpaceOnUse"
       gradientTransform="matrix(0.26457812,0,0,0.26457812,-2.8164292e-6,9.3778578e-6)"><stop
         stop-color="#33BEF0"
         id="stop43245"
         offset="0"
         style="stop-color:#ff5f5f;stop-opacity:1;" /><stop
         offset="1"
         stop-color="#0A85D9"
         id="stop43247"
         style="stop-color:#e82e34;stop-opacity:1;" /></linearGradient><linearGradient
       x1="12"
       y1="1"
       x2="12"
       y2="23"
       gradientUnits="userSpaceOnUse"
       gradientTransform="matrix(0.75,0,0,0.75,-7.98374e-6,2.65834e-5)"
       spreadMethod="pad"
       id="linearGradient44915"><stop
         style="stop-color:#31d931;stop-opacity:1;"
         offset="0"
         id="stop44911" /><stop
         style="stop-color:#d4f3d4;stop-opacity:1;"
         offset="1"
         id="stop44913" /></linearGradient><linearGradient
       id="paint0_linear_3_286-3"
       x1="12"
       y1="1"
       x2="12"
       y2="12"
       gradientUnits="userSpaceOnUse"><stop
         stop-color="#EEA5FF"
         id="stop266-6" /><stop
         offset="1"
         stop-color="#A159B2"
         id="stop268-7" /></linearGradient><radialGradient
       id="paint0_radial_4_408"
       cx="0"
       cy="0"
       r="1"
       gradientUnits="userSpaceOnUse"
       gradientTransform="matrix(0,5.8207186,-5.8207186,0,3.1749362,0.26458225)"><stop
         stop-color="#D6B1FF"
         id="stop3331"
         offset="0"
         style="stop-color:#cdf2cd;stop-opacity:1;" /><stop
         offset="1"
         stop-color="#A75DFA"
         id="stop3333"
         style="stop-color:#38d23a;stop-opacity:1;" /></radialGradient><radialGradient
       fx="0"
       fy="0"
       cx="0"
       cy="0"
       r="1"
       gradientUnits="userSpaceOnUse"
       gradientTransform="matrix(0,16.5,-16.5,0,8.999996,0.750012)"
       spreadMethod="pad"
       id="radialGradient3666"><stop
         style="stop-opacity:1;stop-color:#cdf2cd"
         offset="0"
         id="stop3662" /><stop
         style="stop-opacity:1;stop-color:#38d23a"
         offset="1"
         id="stop3664" /></radialGradient><radialGradient
       fx="0"
       fy="0"
       cx="0"
       cy="0"
       r="1"
       gradientUnits="userSpaceOnUse"
       gradientTransform="matrix(0,16.5,-16.5,0,8.999996,0.750012)"
       spreadMethod="pad"
       id="radialGradient3666-6"><stop
         style="stop-opacity:1;stop-color:#cdf2cd"
         offset="0"
         id="stop3662-7" /><stop
         style="stop-opacity:1;stop-color:#38d23a"
         offset="1"
         id="stop3664-5" /></radialGradient></defs><sodipodi:namedview
     id="namedview192"
     pagecolor="#ffffff"
     bordercolor="#000000"
     borderopacity="0.25"
     inkscape:showpageshadow="2"
     inkscape:pageopacity="0.0"
     inkscape:pagecheckerboard="0"
     inkscape:deskcolor="#d1d1d1"
     showgrid="false"
     inkscape:zoom="6.3828125"
     inkscape:cx="29.29743"
     inkscape:cy="-5.24847"
     inkscape:window-width="2560"
     inkscape:window-height="1000"
     inkscape:window-x="1680"
     inkscape:window-y="0"
     inkscape:window-maximized="1"
     inkscape:current-layer="svg190" /><text
     xml:space="preserve"
     transform="scale(0.26457812)"
     id="text6366"
     style="font-size:15px;font-family:Ubuntu;-inkscape-font-specification:Ubuntu;white-space:pre;shape-inside:url(#rect6368);display:inline;fill:#38d23a;stroke-width:0.513" /><g
     id="g3652"
     transform="matrix(0.35277082,0,0,0.35277082,-1.1961624e-4,-9.2306512e-6)"><g
       id="g3654"><g
         id="g3660"><path
           d="m 7.195,0.836 c 0.09,0 0.176,-0.012 0.258,-0.035 1.078,-0.071 2.156,-0.067 3.231,0.008 0.976,0.078 1.921,0.289 2.836,0.636 1.519,0.625 2.558,1.711 3.121,3.254 0.316,0.93 0.507,1.887 0.566,2.867 0.078,1.235 0.051,2.465 -0.086,3.696 -0.105,0.863 -0.328,1.691 -0.672,2.488 -0.637,1.383 -1.672,2.336 -3.101,2.859 C 12.191,17 11,17.207 9.773,17.227 8.398,17.301 7.035,17.195 5.684,16.918 3.203,16.367 1.668,14.852 1.09,12.375 0.844,11.262 0.73,10.133 0.754,8.992 0.727,7.781 0.855,6.582 1.141,5.402 1.75,3.09 3.219,1.656 5.547,1.102 6.09,0.969 6.641,0.879 7.195,0.836 Z"
           style="fill:url(#radialGradient3666-6);fill-rule:evenodd;stroke:none"
           id="path3668" /></g></g></g><path
     d="m 1.9347274,1.5549133 c -0.4122459,0 -0.7441259,0.3318801 -0.7441259,0.7441259 v 1.2402099 c 0,0.4122458 0.33188,0.744126 0.7441259,0.744126 H 2.299473 L 2.647352,4.7949617 3.057737,4.5159144 2.8222211,4.1698959 C 3.0335533,4.0389297 3.1749367,3.8071345 3.1749367,3.5392491 V 2.2990393 c 0,-0.4122459 -0.3318797,-0.7441259 -0.7441256,-0.7441259 z m 1.9843358,0 V 2.0509972 H 3.6710213 v 0.496084 h 0.2480419 v 0.9921679 c 0,0.4122458 0.3318806,0.744126 0.7441265,0.744126 L 5.1592734,4.1593541 V 3.7872912 H 4.6631897 c -0.137416,0 -0.2480419,-0.1106267 -0.2480419,-0.248042 V 2.5470812 H 5.1592734 V 2.0509972 H 4.4151478 V 1.5549133 Z M 1.9347274,2.0509972 h 0.4960837 c 0.137415,0 0.2480419,0.1106268 0.2480419,0.248042 v 1.2402099 c 0,0.1374153 -0.1106269,0.248042 -0.2480419,0.248042 H 1.9347274 c -0.137415,0 -0.2480418,-0.1106267 -0.2480418,-0.248042 V 2.2990393 c 0,-0.1374153 0.1106268,-0.248042 0.2480418,-0.2480421 z"
     fill="#fafafa"
     id="path849"
     style="stroke-width:0.124021" /><path
     id="circle851"
     style="fill:#005093;fill-opacity:1;stroke-width:0.240152"
     d="M 4.7789405,3.0343804 A 2.1613727,2.1613727 0 0 0 2.617359,5.1954462 2.1613727,2.1613727 0 0 0 2.806491,6.0749618 c 0.212877,0.012921 0.427028,0.013756 0.641809,0.00258 0.431844,-0.0073 0.851671,-0.079983 1.2603625,-0.2180665 0.504339,-0.1850193 0.869436,-0.5212194 1.094486,-1.0087041 0.121335,-0.2811405 0.199906,-0.5739795 0.236157,-0.878482 0.01876,-0.1677965 0.0315,-0.3357531 0.03876,-0.5038353 A 2.1613727,2.1613727 0 0 0 4.7789445,3.0343804 Z" /><rect
     x="5.4125485"
     y="3.6829097"
     width="0.39085811"
     height="0.39085811"
     rx="0.13028604"
     ry="0.13028604"
     id="rect9137"
     style="fill:#1e88e5;stroke-width:0.130286" /><rect
     x="3.5885434"
     y="3.6829097"
     width="0.39085811"
     height="0.39085811"
     rx="0.13028604"
     ry="0.13041633"
     id="rect9139"
     style="fill:#1e88e5;stroke-width:0.130286" /><rect
     x="3.5885434"
     y="5.5069141"
     width="0.39085811"
     height="0.39085811"
     rx="0.13028604"
     ry="0.13028604"
     id="rect9143"
     style="fill:#1e88e5;stroke-width:0.130286" /><path
     id="rect10966"
     style="fill:#64b5f6;fill-opacity:1;stroke-width:0.130286"
     d="M 3.7190796,3.8131289 V 5.7674931 H 4.9231165 C 5.2373745,5.6116307 5.4872375,5.3861707 5.6729275,5.0910619 V 3.8131289 Z" /></svg>

<svg xmlns="http://www.w3.org/2000/svg" xml:space="preserve" width="24" height="24" viewBox="0 0 6.35 6.35"><defs><radialGradient id="b" cx="0" cy="0" r="1" fx="0" fy="0" gradientTransform="matrix(0 16.5 -16.5 0 9 .75)" gradientUnits="userSpaceOnUse" spreadMethod="pad"><stop offset="0" style="stop-opacity:1;stop-color:#cdf2cd"/><stop offset="1" style="stop-opacity:1;stop-color:#38d23a"/></radialGradient><path id="a" d="M5.327 2.037h12.69v15.98H5.327z"/></defs><path d="M7.195.836c.09 0 .176-.012.258-.035a23.86 23.86 0 0 1 3.231.008 10.26 10.26 0 0 1 2.836.636c1.519.625 2.558 1.711 3.121 3.254.316.93.507 1.887.566 2.867a21.227 21.227 0 0 1-.086 3.696 8.976 8.976 0 0 1-.672 2.488c-.637 1.383-1.672 2.336-3.101 2.859a11.693 11.693 0 0 1-3.575.618 15.998 15.998 0 0 1-4.089-.309c-2.481-.551-4.016-2.066-4.594-4.543a14.244 14.244 0 0 1-.336-3.383c-.027-1.211.101-2.41.387-3.59.609-2.312 2.078-3.746 4.406-4.3A10.27 10.27 0 0 1 7.195.836Z" style="fill:url(#b);fill-rule:evenodd;stroke:none" transform="scale(.35277)"/><path fill="#fafafa" d="M1.935 1.555a.742.742 0 0 0-.744.744v1.24c0 .412.331.744.744.744h.364l.348.512.41-.28-.235-.345a.74.74 0 0 0 .353-.63V2.298a.742.742 0 0 0-.744-.744zm1.984 0v.496h-.248v.496h.248v.992c0 .412.332.744.744.744l.496-.124v-.372h-.496a.247.247 0 0 1-.248-.248v-.992h.744v-.496h-.744v-.496Zm-1.984.496h.496c.137 0 .248.11.248.248v1.24c0 .138-.11.248-.248.248h-.496a.247.247 0 0 1-.248-.248V2.3c0-.137.11-.248.248-.248z" style="stroke-width:.124021"/><path d="M4.779 3.034a2.161 2.161 0 0 0-2.162 2.161 2.161 2.161 0 0 0 .19.88 5.7 5.7 0 0 0 .641.003c.432-.008.852-.08 1.26-.219a1.87 1.87 0 0 0 1.095-1.008c.121-.281.2-.574.236-.879.02-.168.032-.335.04-.504a2.161 2.161 0 0 0-1.3-.434Z" style="fill:#005093;fill-opacity:1;stroke-width:.240152"/><rect width=".391" height=".391" x="5.413" y="3.683" rx=".13" ry=".13" style="fill:#1e88e5;stroke-width:.130286"/><rect width=".391" height=".391" x="3.589" y="3.683" rx=".13" ry=".13" style="fill:#1e88e5;stroke-width:.130286"/><rect width=".391" height=".391" x="3.589" y="5.507" rx=".13" ry=".13" style="fill:#1e88e5;stroke-width:.130286"/><path d="M3.72 3.813v1.954h1.203a1.83 1.83 0 0 0 .75-.676V3.813Z" style="fill:#64b5f6;fill-opacity:1;stroke-width:.130286"/></svg>
